static/LAC.svg

<?xml version="1.0" encoding="UTF-8"?>
<svg width="150px" height="150px" viewBox="0 0 150 150" version="1.1" xmlns="http://www.w3.org/2000/svg" xmlns:xlink="http://www.w3.org/1999/xlink">
    <!-- Generator: Sketch 50.2 (55047) - http://www.bohemiancoding.com/sketch -->
    <title>LAC</title>
    <desc>Created with Sketch.</desc>
    <defs>
        <polygon id="path-1" points="0 100 100 100 100 0 0 0"></polygon>
    </defs>
    <g id="LAC" stroke="none" stroke-width="1" fill="none" fill-rule="evenodd">
        <g id="Group" transform="translate(25.000000, 25.000000)">
            <path d="M0,50 C0,22.3857143 22.3857143,0 50,0 C77.6142857,0 100,22.3857143 100,50 C100,77.6142857 77.6142857,100 50,100 C22.3857143,100 0,77.6142857 0,50" id="Fill-1" fill="#FFFFFF"></path>
            <path d="M84.3630612,76.4120408 C78.9161224,69.3477551 75.8222449,60.9497959 75.3997959,52.0834694 L93.3130612,52.0834694 C92.8895918,60.9569388 89.8008163,69.3569388 84.3630612,76.4120408 M52.0834694,93.3120408 L52.0834694,80.8906122 L47.9161224,80.8906122 L47.9161224,93.3120408 C36.632449,92.7753061 26.1681633,87.9365306 18.3977551,79.66 C24.7477551,71.7304082 28.3304082,62.204898 28.7691837,52.0834694 L28.7691837,47.9161224 C28.3304082,37.7946939 24.7477551,28.2691837 18.3977551,20.3395918 C26.1681633,12.0630612 36.632449,7.22326531 47.9161224,6.68755102 L47.9161224,18.9977551 L52.0834694,18.9977551 L52.0834694,6.68755102 C63.3671429,7.22326531 73.832449,12.0630612 81.6028571,20.3395918 C75.2518367,28.2691837 71.6702041,37.7946939 71.2314286,47.9161224 L71.2314286,52.0834694 C71.6702041,62.204898 75.2518367,71.7304082 81.6028571,79.66 C73.832449,87.9365306 63.3671429,92.7753061 52.0834694,93.3120408 M15.637551,76.4120408 C10.1987755,69.3569388 7.11,60.9569388 6.68755102,52.0834694 L24.6008163,52.0834694 C24.1783673,60.9497959 21.0834694,69.3487755 15.637551,76.4120408 M15.637551,23.587551 C21.0844898,30.6518367 24.1783673,39.0508163 24.6008163,47.9161224 L6.68755102,47.9161224 C7.11,39.0426531 10.1987755,30.6436735 15.637551,23.587551 M84.3630612,23.587551 C89.8008163,30.6426531 92.8895918,39.0416327 93.3130612,47.9161224 L75.3997959,47.9161224 C75.8222449,39.0508163 78.9161224,30.6518367 84.3630612,23.587551 M49.9997959,2.46204082 C23.787551,2.46204082 2.46204082,23.787551 2.46204082,49.9997959 C2.46204082,76.2130612 23.787551,97.537551 49.9997959,97.537551 C76.2130612,97.537551 97.537551,76.2130612 97.537551,49.9997959 C97.537551,23.787551 76.2130612,2.46204082 49.9997959,2.46204082" id="Fill-3" fill="#061922"></path>
            <polygon id="Fill-5" fill="#C8102E" points="39.8287755 30.1697959 39.8287755 69.83 61.0185714 69.83 61.0185714 64.3769388 45.5002041 64.3769388 45.5002041 30.1697959"></polygon>
            <path d="M68.2218367,43.4570408 L68.2218367,27.1152041 C68.2218367,24.6662245 67.2361224,23.6672449 64.8187755,23.6672449 L35.9759184,23.6672449 C33.5902041,23.6672449 32.6157143,24.6662245 32.6157143,27.1152041 L32.6157143,73.0458163 C32.6157143,75.4937755 33.5902041,76.4927551 35.9759184,76.4927551 L64.8187755,76.4927551 C67.2361224,76.4927551 68.2218367,75.4937755 68.2218367,73.0458163 L68.2218367,56.6856122 L62.5065306,56.6856122 L62.5065306,71.477449 L38.2881633,71.477449 L38.2881633,28.682551 L62.5065306,28.682551 L62.5065306,43.4570408 L68.2218367,43.4570408 Z" id="Fill-7" fill="#1D428A"></path>
            <mask id="mask-2" fill="white">
                <use xlink:href="#path-1"></use>
            </mask>
            <g id="Clip-10"></g>
            <path d="M52.7204082,47.2244898 L55.4826531,47.2244898 L55.4826531,35.622449 L52.7204082,35.622449 L52.7204082,47.2244898 Z M61.0091837,62.8428571 L61.0183673,30.1693878 L47.25,30.1693878 L47.1163265,62.8428571 L52.6295918,62.8428571 L52.7183673,52.6571429 L55.5214286,52.6571429 L55.4816327,62.8428571 L61.0091837,62.8428571 Z" id="Fill-9" fill="#C8102E" mask="url(#mask-2)"></path>
        </g>
    </g>
</svg>

<svg xmlns="http://www.w3.org/2000/svg" xmlns:xlink="http://www.w3.org/1999/xlink" width="150" height="150"><defs><path id="A" d="M0 100h100V0H0z"/></defs><g transform="translate(25 25)" fill-rule="evenodd"><path d="M0 50C0 22.386 22.386 0 50 0s50 22.386 50 50-22.386 50-50 50S0 77.614 0 50" fill="#fff"/><path d="M84.363 76.412c-5.447-7.064-8.54-15.462-8.963-24.33h17.913c-.423 8.873-3.512 17.273-8.95 24.33m-32.28 16.9V80.89h-4.167v12.42c-11.284-.537-21.748-5.376-29.518-13.652 6.35-7.93 9.933-17.455 10.37-27.577v-4.167c-.44-10.12-4.02-19.647-10.37-27.577 7.77-8.277 18.235-13.116 29.518-13.652v12.3h4.167v-12.3c11.284.536 21.75 5.376 29.52 13.652-6.35 7.93-9.933 17.455-10.37 27.577v4.167c.44 10.12 4.02 19.647 10.37 27.577-7.77 8.277-18.236 13.115-29.52 13.652m-36.446-16.9a42.98 42.98 0 0 1-8.95-24.329H24.6c-.422 8.866-3.517 17.265-8.963 24.33m0-52.824c5.447 7.064 8.54 15.463 8.963 24.33H6.688a42.98 42.98 0 0 1 8.95-24.329m68.726 0a42.99 42.99 0 0 1 8.95 24.329H75.4c.422-8.865 3.516-17.264 8.963-24.33M50 2.462C23.788 2.462 2.462 23.788 2.462 50S23.788 97.538 50 97.538 97.538 76.213 97.538 50 76.213 2.462 50 2.462" fill="#061922"/><path fill="#c8102e" d="M39.83 30.17v39.66h21.2v-5.453H45.5V30.17z"/><path d="M68.222 43.457V27.115c0-2.45-.986-3.448-3.403-3.448H35.976c-2.386 0-3.36 1-3.36 3.448v45.93c0 2.448.974 3.447 3.36 3.447H64.82c2.417 0 3.403-1 3.403-3.447v-16.36h-5.715v14.792H38.288V28.683h24.218v14.774h5.715z" fill="#1d428a"/><mask id="B" fill="#fff"><use xlink:href="#A"/></mask><path d="M52.72 47.224h2.762V35.622H52.72v11.602zm8.29 15.618l.01-32.673H47.25l-.134 32.673h5.513l.09-10.186h2.803l-.04 10.186h5.528z" fill="#c8102e" mask="url(#B)"/></g></svg>
